icons/glyphs/glyph-breakout.svg

<?xml version="1.0" encoding="UTF-8" standalone="no"?><svg height="16" viewBox="0 0 4.2333332 4.2333332" width="16" xmlns="http://www.w3.org/2000/svg"><sodipodi:namedview/><metadata><rdf:RDF><cc:Work><dc:format>image/svg+xml</dc:format><dc:type/><dc:title/></cc:Work></rdf:RDF></metadata><g fill="#d0d0d0" stroke-linecap="square"><path d="m0 0v1.4707031h5.3339844v-1.4707031zm5.3339844 1.4707031v1.4726563h5.3320316v-1.4726563zm5.3320316 0h5.333984v-1.4707031h-5.333984zm0 1.4726563v1.4726562h5.333984v-1.4726562zm-5.3320316 0h-5.3339844v1.4726562h5.3339844z" opacity=".6" stroke-width="1.9" transform="scale(.26458333)"/><path d="m5.3339844 0v1.4707031h5.3320316v-1.4707031zm5.3320316 1.4707031v1.4726563h5.333984v-1.4726563zm-5.3320316 0h-5.3339844v1.4726563h5.3339844zm-5.3339844 2.9453125v1.4726563h5.3339844v-1.4726563zm3.6933594 10.7500004c-.2312767 0-.4179688.184738-.4179688.416015 0 .231276.1866919.417969.4179688.417969h5.2695312c.2312761 0 .4179688-.186692.4179688-.417969 0-.231276-.1866919-.416015-.4179688-.416015z" opacity=".3" stroke-width="1.9" transform="scale(.26458333)"/><circle cx="2.547336" cy="2.52968" opacity=".73617" r=".24277" stroke-width=".502708"/></g></svg>

<?xml version="1.0" encoding="UTF-8" standalone="no"?>
<!-- Created with Inkscape (http://www.inkscape.org/) -->

<svg
   xmlns:dc="http://purl.org/dc/elements/1.1/"
   xmlns:cc="http://creativecommons.org/ns#"
   xmlns:rdf="http://www.w3.org/1999/02/22-rdf-syntax-ns#"
   xmlns:svg="http://www.w3.org/2000/svg"
   xmlns="http://www.w3.org/2000/svg"
   xmlns:sodipodi="http://sodipodi.sourceforge.net/DTD/sodipodi-0.dtd"
   xmlns:inkscape="http://www.inkscape.org/namespaces/inkscape"
   width="16"
   height="16"
   viewBox="0 0 4.2333332 4.2333332"
   version="1.1"
   id="svg8"
   inkscape:version="0.92+devel (d0390b9f4f, 2017-07-31, custom)"
   sodipodi:docname="glyph-breakout.svg">
  <defs
     id="defs2" />
  <sodipodi:namedview
     id="base"
     pagecolor="#002466"
     bordercolor="#ffffff"
     borderopacity="0.38039216"
     inkscape:pageopacity="1"
     inkscape:pageshadow="2"
     inkscape:zoom="36.415999"
     inkscape:cx="10.094581"
     inkscape:cy="7.9162778"
     inkscape:document-units="px"
     inkscape:current-layer="svg8"
     inkscape:document-rotation="0"
     showgrid="false"
     inkscape:showpageshadow="false"
     borderlayer="true"
     inkscape:window-width="1920"
     inkscape:window-height="1051"
     inkscape:window-x="0"
     inkscape:window-y="0"
     inkscape:window-maximized="1"
     units="px"
     inkscape:snap-page="true" />
  <metadata
     id="metadata5">
    <rdf:RDF>
      <cc:Work
         rdf:about="">
        <dc:format>image/svg+xml</dc:format>
        <dc:type
           rdf:resource="http://purl.org/dc/dcmitype/StillImage" />
        <dc:title></dc:title>
      </cc:Work>
    </rdf:RDF>
  </metadata>
  <path
     style="font-variation-settings:normal;opacity:0.6;vector-effect:none;fill:#d0d0d0;stroke-width:1.89999998;stroke-linecap:square"
     d="M 0 0 L 0 1.4707031 L 5.3339844 1.4707031 L 5.3339844 0 L 0 0 z M 5.3339844 1.4707031 L 5.3339844 2.9433594 L 10.666016 2.9433594 L 10.666016 1.4707031 L 5.3339844 1.4707031 z M 10.666016 1.4707031 L 16 1.4707031 L 16 0 L 10.666016 0 L 10.666016 1.4707031 z M 10.666016 2.9433594 L 10.666016 4.4160156 L 16 4.4160156 L 16 2.9433594 L 10.666016 2.9433594 z M 5.3339844 2.9433594 L 0 2.9433594 L 0 4.4160156 L 5.3339844 4.4160156 L 5.3339844 2.9433594 z "
     transform="scale(0.26458333)"
     id="rect813"
     inkscape:label="#" />
  <path
     style="font-variation-settings:normal;opacity:0.3;vector-effect:none;fill:#d0d0d0;stroke-width:1.89999998;stroke-linecap:square"
     d="M 5.3339844 0 L 5.3339844 1.4707031 L 10.666016 1.4707031 L 10.666016 0 L 5.3339844 0 z M 10.666016 1.4707031 L 10.666016 2.9433594 L 16 2.9433594 L 16 1.4707031 L 10.666016 1.4707031 z M 5.3339844 1.4707031 L 0 1.4707031 L 0 2.9433594 L 5.3339844 2.9433594 L 5.3339844 1.4707031 z M 0 4.4160156 L 0 5.8886719 L 5.3339844 5.8886719 L 5.3339844 4.4160156 L 0 4.4160156 z M 3.6933594 15.166016 C 3.4620827 15.166016 3.2753906 15.350754 3.2753906 15.582031 C 3.2753906 15.813307 3.4620825 16 3.6933594 16 L 8.9628906 16 C 9.1941667 16 9.3808594 15.813308 9.3808594 15.582031 C 9.3808594 15.350755 9.1941675 15.166016 8.9628906 15.166016 L 3.6933594 15.166016 z "
     transform="scale(0.26458333)"
     id="rect815"
     inkscape:label="#" />
  <circle
     style="font-variation-settings:normal;opacity:0.73617021;vector-effect:none;fill:#d0d0d0;stroke-width:0.50270832;stroke-linecap:square"
     id="path823"
     cx="2.5473361"
     cy="2.5296798"
     r="0.24276964"
     inkscape:label="#" />
</svg>
